brandFactory_export/3.Masa/Cita_3Masa.svg

<?xml version="1.0" encoding="UTF-8"?>
<svg width="24px" height="24px" viewBox="0 0 24 24" version="1.1" xmlns="http://www.w3.org/2000/svg" xmlns:xlink="http://www.w3.org/1999/xlink">
    <title>3.Masa/Cita_3Masa</title>
    <g id="Symbols" stroke="none" stroke-width="1" fill="none" fill-rule="evenodd">
        <g id="3.Masa/Cita_3Masa" fill="#5CB615" fill-rule="nonzero">
            <path d="M15.3176471,14.2621849 C15.8890756,14.2621849 16.3932773,14.7193277 16.3932773,15.2403361 L16.3932773,16.9277311 C16.3932773,17.4588235 15.902521,17.9058824 15.3176471,17.9058824 L13.6806723,17.9058824 L13.6840336,19.5260504 C13.6840336,20.1008403 13.2302521,20.5848739 12.6957983,20.5848739 L10.9915966,20.5848739 C10.4537815,20.5848739 10.0033613,20.1008403 10.0033613,19.5260504 L10.0033613,17.902521 L8.36638655,17.902521 C7.78823529,17.902521 7.29747899,17.4554622 7.29747899,16.9243697 L7.29747899,15.2436975 C7.29747899,14.712605 7.78823529,14.2655462 8.36638655,14.2655462 L10.0033613,14.2655462 L10.0033613,12.6453782 C10.0033613,12.0672269 10.4571429,11.5798319 10.9915966,11.5798319 L12.6890756,11.5798319 C13.2268908,11.5798319 13.6773109,12.0672269 13.6773109,12.6453782 L13.6773109,14.2621849 L15.3176471,14.2621849 L15.3176471,14.2621849 Z M19.6638655,22.1613445 C22.1781513,22.1613445 22.1781513,19.9932773 22.1781513,19.2806723 L22.1747899,10.2722689 L1.51260504,10.2722689 L1.51260504,19.3042017 C1.51260504,19.3378151 1.51260504,19.3714286 1.5092437,19.405042 C1.5092437,19.405042 1.45546218,20.6487395 2.20168067,21.4252101 C2.65882353,21.902521 3.39495798,22.1445378 4.37647059,22.1445378 L19.2806723,22.1445378 C19.3411765,22.1445378 19.4016807,22.1478992 19.4621849,22.1579832 C19.4789916,22.1546218 19.5529412,22.1613445 19.6638655,22.1613445 L19.6638655,22.1613445 Z M19.2840336,2.56134454 C23.9966387,2.56134454 23.6504202,6.88067227 23.6504202,6.88067227 L23.6537815,19.2806723 C23.6537815,23.2638655 20.7226891,23.6235294 19.6638655,23.6235294 C19.4285714,23.6235294 19.287395,23.6067227 19.287395,23.6067227 L4.37983193,23.6067227 C-0.258823529,23.6067227 0.0369747899,19.3042017 0.0369747899,19.3042017 L0.0369747899,6.85714286 C0.0369747899,2.84705882 3.22352941,2.56134454 4.12773109,2.56134454 C4.2789916,2.56134454 4.36638655,2.56806723 4.36638655,2.56806723 L5.79495798,2.56806723 L5.79495798,0.732773109 C5.79495798,0.329411765 6.12436975,0 6.53445378,0 C6.94117647,0 7.27394958,0.32605042 7.27394958,0.732773109 L7.27394958,2.56806723 L16.4302521,2.56470588 L16.4302521,0.732773109 C16.4302521,0.329411765 16.7596639,0 17.1697479,0 C17.5764706,0 17.9092437,0.32605042 17.9092437,0.732773109 L17.9092437,2.56470588 C17.902521,2.56134454 19.2840336,2.56134454 19.2840336,2.56134454 L19.2840336,2.56134454 Z" id="Cita_3Masa"></path>
        </g>
    </g>
</svg>

<svg width="24" height="24" viewBox="0 0 24 24" xmlns="http://www.w3.org/2000/svg"><path d="M15.318 14.262c.571 0 1.075.457 1.075.978v1.688c0 .53-.49.978-1.075.978H13.68l.003 1.62c0 .575-.454 1.059-.988 1.059h-1.704c-.538 0-.989-.484-.989-1.059v-1.623H8.366c-.578 0-1.069-.448-1.069-.979v-1.68c0-.531.491-.978 1.07-.978h1.636v-1.62c0-.579.454-1.066.989-1.066h1.697c.538 0 .988.487.988 1.065v1.617h1.64zm4.346 7.9c2.514 0 2.514-2.169 2.514-2.881l-.003-9.009H1.513v9.032c0 .034 0 .067-.004.101 0 0-.054 1.244.693 2.02.457.478 1.193.72 2.174.72h14.905c.06 0 .12.003.181.013.017-.003.09.003.202.003zm-.38-19.6c4.713 0 4.366 4.319 4.366 4.319l.004 12.4c0 3.983-2.931 4.343-3.99 4.343-.235 0-.377-.017-.377-.017H4.38c-4.639 0-4.343-4.303-4.343-4.303V6.857c0-4.01 3.187-4.296 4.09-4.296.152 0 .24.007.24.007h1.428V.733c0-.404.33-.733.74-.733.406 0 .739.326.739.733v1.835l9.156-.003V.733c0-.404.33-.733.74-.733.406 0 .74.326.74.733v1.832c-.007-.004 1.374-.004 1.374-.004z" fill="#5CB615" fill-rule="nonzero"/></svg>
